X: 1631
T:The Rose of Drishane
M:2/4
L:1/16
B:O'Neills 1631
N:"collected by Hartnett"
Z:Transcribed by Nick Terhorst, nickte@microsoft.com
N: Fixed line wrapping [jc]
K:D
fe|dAFA defg|afbf agfg|afge fdgf|3efd 3cdB Agfe|
dAFA defg|afbf agfg|afge fdec|d2dd d2:|
|:fg|afbf agef|ageae g2fg|afge fdgf|3efd 3cdB Agfe|
|dAFA defg|afbf agfg|afge fdec|d2dd d2:|
